imagenes/wise.svg

<svg version="1.1" id="Layer_1" xmlns="http://www.w3.org/2000/svg" xmlns:xlink="http://www.w3.org/1999/xlink" x="0px" y="0px"
	 width="100%" viewBox="0 0 456 110" enable-background="new 0 0 456 110" xml:space="preserve">
<path fill="#FDFEFE" opacity="1.000000" stroke="none" 
	d="
M308.000000,111.000000 
	C205.333344,111.000000 103.166695,111.000000 1.000027,111.000000 
	C1.000018,74.333351 1.000018,37.666698 1.000009,1.000037 
	C152.999969,1.000025 304.999939,1.000025 456.999939,1.000012 
	C456.999939,37.666630 456.999939,74.333260 456.999969,110.999939 
	C407.500000,111.000000 358.000000,111.000000 308.000000,111.000000 
M420.406738,77.302429 
	C414.076263,86.086357 404.552246,87.103691 395.176056,86.309067 
	C385.627716,85.499847 377.757080,74.298729 378.936096,64.023682 
	C400.992676,64.025032 423.049286,64.048080 445.105682,63.983456 
	C446.738922,63.978672 448.370331,63.343391 450.354095,62.259552 
	C452.256775,52.624043 452.214020,43.037468 448.995728,33.690529 
	C444.229279,19.847221 434.396667,11.181541 420.393219,7.611800 
	C415.983978,6.487795 411.100830,6.773576 406.474792,7.061079 
	C400.468689,7.434351 394.143311,7.422668 388.577820,9.362514 
	C352.214294,22.037006 348.308044,68.157486 361.705811,87.478828 
	C371.897156,102.176025 386.337830,107.220680 403.321686,105.917122 
	C422.465698,104.447754 437.798645,96.601257 445.587219,77.154900 
	C437.416382,77.176674 429.245544,77.198456 420.406738,77.302429 
M199.167862,12.255603 
	C199.083359,11.507319 198.998856,10.759036 198.884338,9.155057 
	C191.537689,8.974795 184.191055,8.794534 176.270844,8.842957 
	C176.176208,9.228982 176.081589,9.615006 175.601273,10.599375 
	C166.248749,32.439640 156.896210,54.279907 146.970261,77.459244 
	C144.410645,53.461742 142.003799,30.896324 139.610992,8.462735 
	C131.846786,8.462735 124.636330,8.462735 117.246918,8.462735 
	C121.582794,40.516251 125.870537,72.213860 130.154465,103.883270 
	C138.702637,103.883270 146.678818,103.883270 154.701004,103.883270 
	C163.939270,82.332558 173.142517,60.863541 182.345764,39.394524 
	C182.620117,39.447670 182.894470,39.500816 183.168823,39.553963 
	C185.875275,60.928497 188.581711,82.303032 191.305557,103.814926 
	C199.929214,103.814926 208.220947,103.814926 216.747711,103.814926 
	C230.232391,72.157448 243.748184,40.426979 257.506714,8.126567 
	C250.871155,8.126567 245.061584,8.317932 239.273178,8.050839 
	C236.082184,7.903600 234.713242,9.024460 233.540009,11.988925 
	C226.522034,29.721727 219.254562,47.355923 212.043945,65.012238 
	C210.540756,68.693077 208.925079,72.327988 207.361237,75.984062 
	C205.576553,68.819542 204.820572,61.952194 204.017105,55.090405 
	C202.374237,41.059982 200.705872,27.032553 199.167862,12.255603 
M17.280214,48.783142 
	C13.946630,51.920940 10.613045,55.058739 6.428638,58.997391 
	C21.660042,58.997391 35.738735,59.017925 49.816914,58.942398 
	C50.597141,58.938217 51.767143,58.328934 52.083630,57.675686 
	C53.544292,54.660801 54.766781,51.530525 56.393776,47.687897 
	C48.403526,47.687897 41.384987,47.687897 33.137569,47.687897 
	C38.607719,42.475578 43.177864,38.120846 47.768093,33.746971 
	C45.042805,28.875490 42.445316,24.232456 39.726845,19.373158 
	C52.943432,19.373158 65.381615,19.373158 78.607018,19.373158 
	C66.566101,47.743565 54.728603,75.634674 42.689220,104.001465 
	C45.709530,104.001465 47.895973,103.782654 50.022282,104.047188 
	C54.397873,104.591545 56.526176,103.151299 58.359158,98.700768 
	C68.528633,74.009048 79.248413,49.544220 89.740143,24.984772 
	C92.045082,19.589283 94.189301,14.125132 96.462341,8.558373 
	C70.164513,8.558373 44.643524,8.558373 18.470127,8.558373 
	C23.548040,17.254742 28.284340,25.366064 32.909256,33.286636 
	C32.671906,33.782059 32.635422,33.967747 32.523750,34.075550 
	C27.612843,38.816299 22.695295,43.550171 17.280214,48.783142 
M310.955536,48.448887 
	C309.753448,54.120956 308.750092,59.844090 307.308624,65.454659 
	C304.141785,77.780922 302.058716,79.397301 289.466949,79.905930 
	C287.993286,87.738068 286.505127,95.647453 284.971771,103.796951 
	C286.975983,103.939552 288.618622,104.070084 290.263062,104.171371 
	C310.531372,105.419762 321.875397,98.350502 327.805725,77.664986 
	C330.628632,67.818520 332.011993,57.568604 334.494232,47.612831 
	C337.488464,35.603436 339.821625,33.839561 352.291443,32.630116 
	C353.540283,25.892385 355.004395,19.079746 355.886383,12.192555 
	C356.037842,11.009946 353.694794,8.346806 352.530151,8.362056 
	C348.009857,8.421245 343.514679,9.496347 338.983643,9.809354 
	C326.669342,10.660035 320.167084,18.564728 316.158081,28.964079 
	C313.851349,34.947750 312.685120,41.371094 310.955536,48.448887 
M260.006012,49.612560 
	C256.737091,67.639320 253.468155,85.666084 250.143478,104.000244 
	C256.817902,104.000244 262.980865,103.806572 269.123444,104.076614 
	C272.527161,104.226257 273.549103,102.990517 274.119080,99.731659 
	C277.523407,80.268112 281.225098,60.856777 284.772491,41.417969 
	C286.765442,30.497280 288.653595,19.557467 290.677704,8.125033 
	C284.180817,8.125033 278.200470,8.305820 272.238251,8.055564 
	C268.796936,7.911120 267.396027,8.760106 266.800476,12.509462 
	C264.873596,24.640903 262.384247,36.683014 260.006012,49.612560 
z"/>
<path fill="#2F446A" opacity="1.000000" stroke="none" 
	d="
M176.844406,8.614273 
	C184.191055,8.794534 191.537689,8.974795 198.674362,9.786953 
	C198.658936,11.280530 198.853470,12.142210 199.048019,13.003889 
	C200.705872,27.032553 202.374237,41.059982 204.017105,55.090405 
	C204.820572,61.952194 205.576553,68.819542 207.361237,75.984062 
	C208.925079,72.327988 210.540756,68.693077 212.043945,65.012238 
	C219.254562,47.355923 226.522034,29.721727 233.540009,11.988925 
	C234.713242,9.024460 236.082184,7.903600 239.273178,8.050839 
	C245.061584,8.317932 250.871155,8.126567 257.506714,8.126567 
	C243.748184,40.426979 230.232391,72.157448 216.747711,103.814926 
	C208.220947,103.814926 199.929214,103.814926 191.305557,103.814926 
	C188.581711,82.303032 185.875275,60.928497 183.168823,39.553963 
	C182.894470,39.500816 182.620117,39.447670 182.345764,39.394524 
	C173.142517,60.863541 163.939270,82.332558 154.701004,103.883270 
	C146.678818,103.883270 138.702637,103.883270 130.154465,103.883270 
	C125.870537,72.213860 121.582794,40.516251 117.246918,8.462735 
	C124.636330,8.462735 131.846786,8.462735 139.610992,8.462735 
	C142.003799,30.896324 144.410645,53.461742 146.970261,77.459244 
	C156.896210,54.279907 166.248749,32.439640 176.022705,10.128672 
	C176.577560,9.310069 176.710983,8.962172 176.844406,8.614273 
z"/>
<path fill="#2E4369" opacity="1.000000" stroke="none" 
	d="
M445.858063,77.976463 
	C437.798645,96.601257 422.465698,104.447754 403.321686,105.917122 
	C386.337830,107.220680 371.897156,102.176025 361.705811,87.478828 
	C348.308044,68.157486 352.214294,22.037006 388.577820,9.362514 
	C394.143311,7.422668 400.468689,7.434351 406.474792,7.061079 
	C411.100830,6.773576 415.983978,6.487795 420.393219,7.611800 
	C434.396667,11.181541 444.229279,19.847221 448.995728,33.690529 
	C452.214020,43.037468 452.256775,52.624043 449.709534,62.625595 
	C427.268372,62.994076 405.471649,62.972118 383.675293,63.041916 
	C381.782318,63.047977 379.891296,63.659027 377.999359,63.989059 
	C377.757080,74.298729 385.627716,85.499847 395.176056,86.309067 
	C404.552246,87.103691 414.076263,86.086357 421.059937,77.515091 
	C429.761475,77.810661 437.809753,77.893562 445.858063,77.976463 
M428.467041,46.475529 
	C428.573334,34.637054 420.114502,25.855703 408.047821,25.277742 
	C394.637482,24.635422 380.639282,35.458447 380.569977,47.579449 
	C395.815735,47.701935 411.061401,47.834408 426.307404,47.907238 
	C426.866760,47.909912 427.428955,47.328808 428.467041,46.475529 
z"/>
<path fill="#03B9FF" opacity="1.000000" stroke="none" 
	d="
M17.529381,48.534004 
	C22.695295,43.550171 27.612843,38.816299 32.523750,34.075550 
	C32.635422,33.967747 32.671906,33.782059 32.909256,33.286636 
	C28.284340,25.366064 23.548040,17.254742 18.470127,8.558373 
	C44.643524,8.558373 70.164513,8.558373 96.462341,8.558373 
	C94.189301,14.125132 92.045082,19.589283 89.740143,24.984772 
	C79.248413,49.544220 68.528633,74.009048 58.359158,98.700768 
	C56.526176,103.151299 54.397873,104.591545 50.022282,104.047188 
	C47.895973,103.782654 45.709530,104.001465 42.689220,104.001465 
	C54.728603,75.634674 66.566101,47.743565 78.607018,19.373158 
	C65.381615,19.373158 52.943432,19.373158 39.726845,19.373158 
	C42.445316,24.232456 45.042805,28.875490 47.768093,33.746971 
	C43.177864,38.120846 38.607719,42.475578 33.137569,47.687897 
	C41.384987,47.687897 48.403526,47.687897 56.393776,47.687897 
	C54.766781,51.530525 53.544292,54.660801 52.083630,57.675686 
	C51.767143,58.328934 50.597141,58.938217 49.816914,58.942398 
	C35.738735,59.017925 21.660042,58.997391 6.428638,58.997391 
	C10.613045,55.058739 13.946630,51.920940 17.529381,48.534004 
z"/>
<path fill="#2F446A" opacity="1.000000" stroke="none" 
	d="
M310.980499,48.022705 
	C312.685120,41.371094 313.851349,34.947750 316.158081,28.964079 
	C320.167084,18.564728 326.669342,10.660035 338.983643,9.809354 
	C343.514679,9.496347 348.009857,8.421245 352.530151,8.362056 
	C353.694794,8.346806 356.037842,11.009946 355.886383,12.192555 
	C355.004395,19.079746 353.540283,25.892385 352.291443,32.630116 
	C339.821625,33.839561 337.488464,35.603436 334.494232,47.612831 
	C332.011993,57.568604 330.628632,67.818520 327.805725,77.664986 
	C321.875397,98.350502 310.531372,105.419762 290.263062,104.171371 
	C288.618622,104.070084 286.975983,103.939552 284.971771,103.796951 
	C286.505127,95.647453 287.993286,87.738068 289.466949,79.905930 
	C302.058716,79.397301 304.141785,77.780922 307.308624,65.454659 
	C308.750092,59.844090 309.753448,54.120956 310.980499,48.022705 
z"/>
<path fill="#30456A" opacity="1.000000" stroke="none" 
	d="
M260.058807,49.186050 
	C262.384247,36.683014 264.873596,24.640903 266.800476,12.509462 
	C267.396027,8.760106 268.796936,7.911120 272.238251,8.055564 
	C278.200470,8.305820 284.180817,8.125033 290.677704,8.125033 
	C288.653595,19.557467 286.765442,30.497280 284.772491,41.417969 
	C281.225098,60.856777 277.523407,80.268112 274.119080,99.731659 
	C273.549103,102.990517 272.527161,104.226257 269.123444,104.076614 
	C262.980865,103.806572 256.817902,104.000244 250.143478,104.000244 
	C253.468155,85.666084 256.737091,67.639320 260.058807,49.186050 
z"/>
<path fill="#0C2D5C" opacity="1.000000" stroke="none" 
	d="
M378.467712,64.006371 
	C379.891296,63.659027 381.782318,63.047977 383.675293,63.041916 
	C405.471649,62.972118 427.268372,62.994076 449.533783,62.996429 
	C448.370331,63.343391 446.738922,63.978672 445.105682,63.983456 
	C423.049286,64.048080 400.992676,64.025032 378.467712,64.006371 
z"/>
<path fill="#0C2D5C" opacity="1.000000" stroke="none" 
	d="
M445.722656,77.565681 
	C437.809753,77.893562 429.761475,77.810661 421.393921,77.473999 
	C429.245544,77.198456 437.416382,77.176674 445.722656,77.565681 
z"/>
<path fill="#3A4E72" opacity="1.000000" stroke="none" 
	d="
M199.107941,12.629745 
	C198.853470,12.142210 198.658936,11.280530 198.689362,10.214801 
	C198.998856,10.759036 199.083359,11.507319 199.107941,12.629745 
z"/>
<path fill="#3A4E72" opacity="1.000000" stroke="none" 
	d="
M176.557617,8.728615 
	C176.710983,8.962172 176.577560,9.310069 176.215546,9.829500 
	C176.081589,9.615006 176.176208,9.228982 176.557617,8.728615 
z"/>
<path fill="#FAFBFB" opacity="1.000000" stroke="none" 
	d="
M380.010864,46.955139 
	C380.639282,35.458447 394.637482,24.635422 408.047821,25.277742 
	C420.114502,25.855703 428.573334,34.637054 427.762451,46.703049 
	C411.375519,46.938759 395.693176,46.946949 380.010864,46.955139 
z"/>
<path fill="#0C2D5C" opacity="1.000000" stroke="none" 
	d="
M380.290405,47.267296 
	C395.693176,46.946949 411.375519,46.938759 427.523804,46.975166 
	C427.428955,47.328808 426.866760,47.909912 426.307404,47.907238 
	C411.061401,47.834408 395.815735,47.701935 380.290405,47.267296 
z"/>
</svg>

<svg xmlns="http://www.w3.org/2000/svg" viewBox="0 0 456 110" xml:space="preserve"><path fill="#FDFEFE" d="M308 111H1V1h456v110H308m112.407-33.698c-6.33 8.784-15.855 9.802-25.23 9.007-9.55-.81-17.42-12.01-16.24-22.285 22.056.001 44.112.024 66.169-.04 1.633-.005 3.264-.64 5.248-1.724 1.903-9.636 1.86-19.223-1.358-28.57-4.767-13.843-14.6-22.508-28.603-26.078-4.409-1.124-9.292-.838-13.918-.55-6.006.372-12.332.36-17.897 2.3-36.364 12.675-40.27 58.795-26.872 78.117 10.191 14.697 24.632 19.742 41.616 18.438 19.144-1.47 34.477-9.316 42.265-28.762-8.17.022-16.341.043-25.18.147m-221.24-65.046c-.084-.749-.168-1.497-.283-3.1-7.346-.181-14.693-.361-22.613-.313-.095.386-.19.772-.67 1.756l-28.63 66.86-7.36-68.996h-22.364l12.907 95.42h24.547l27.645-64.488.823.159 8.137 64.26h25.442l40.759-95.687c-6.636 0-12.445.19-18.234-.076-3.19-.147-4.56.973-5.733 3.938-7.018 17.733-14.285 35.367-21.496 53.023-1.503 3.681-3.119 7.316-4.683 10.972-1.784-7.164-2.54-14.032-3.344-20.894-1.643-14.03-3.311-28.057-4.85-42.834M17.28 48.783 6.43 58.997c15.231 0 29.31.02 43.388-.055.78-.004 1.95-.613 2.267-1.266 1.46-3.015 2.683-6.145 4.31-9.988H33.138l14.63-13.941-8.041-14.374h38.88l-35.918 84.628c3.02 0 5.207-.218 7.333.046 4.376.545 6.504-.896 8.337-5.346C68.53 74.009 79.25 49.544 89.74 24.985c2.305-5.396 4.45-10.86 6.722-16.427H18.47l14.44 24.729c-.238.495-.275.68-.386.789-4.911 4.74-9.829 9.474-15.244 14.707m293.676-.334c-1.203 5.672-2.206 11.395-3.647 17.006-3.167 12.326-5.25 13.942-17.842 14.45l-4.495 23.892c2.004.143 3.647.273 5.291.374 20.268 1.249 31.612-5.82 37.543-26.506 2.823-9.846 4.206-20.096 6.688-30.052 2.994-12.01 5.328-13.773 17.797-14.983 1.25-6.738 2.713-13.55 3.595-20.437.152-1.183-2.191-3.846-3.356-3.83-4.52.058-9.015 1.133-13.546 1.446-12.315.851-18.817 8.756-22.826 19.155-2.307 5.984-3.473 12.407-5.202 19.485m-50.95 1.164L250.143 104c6.675 0 12.838-.193 18.98.077 3.404.15 4.426-1.086 4.996-4.345 3.404-19.464 7.106-38.875 10.653-58.314 1.993-10.92 3.882-21.86 5.906-33.293-6.497 0-12.478.18-18.44-.07-3.441-.144-4.842.705-5.438 4.454-1.926 12.132-4.416 24.174-6.794 37.104z"/><path fill="#2F446A" d="M176.844 8.614c7.347.18 14.694.36 21.83 1.173-.015 1.494.18 2.355.374 3.217 1.658 14.029 3.326 28.056 4.97 42.086.803 6.862 1.559 13.73 3.343 20.894 1.564-3.656 3.18-7.29 4.683-10.972 7.21-17.656 14.478-35.29 21.496-53.023 1.173-2.965 2.542-4.085 5.733-3.938 5.789.267 11.598.076 18.234.076l-40.76 95.688h-25.441l-8.137-64.261-.823-.16-27.645 64.49h-24.547L117.247 8.462h22.364l7.36 68.996c9.925-23.18 19.278-45.02 29.052-67.33.555-.819.688-1.167.821-1.515z"/><path fill="#2E4369" d="M445.858 77.976c-8.06 18.625-23.392 26.472-42.536 27.941-16.984 1.304-31.425-3.741-41.616-18.438-13.398-19.322-9.492-65.442 26.872-78.116 5.565-1.94 11.89-1.929 17.897-2.302 4.626-.287 9.509-.573 13.918.55 14.004 3.57 23.836 12.236 28.603 26.08 3.218 9.346 3.26 18.933.714 28.935-22.442.368-44.238.346-66.035.416-1.893.006-3.784.617-5.676.947-.242 10.31 7.629 21.51 17.177 22.32 9.376.795 18.9-.223 25.884-8.794 8.701.296 16.75.379 24.798.461m-17.391-31.5c.106-11.839-8.352-20.62-20.42-21.198-13.41-.643-27.408 10.18-27.477 22.301 15.246.123 30.491.255 45.737.328.56.003 1.122-.578 2.16-1.431z"/><path fill="#03B9FF" d="M17.53 48.534c5.165-4.984 10.083-9.718 14.994-14.458.111-.108.148-.294.385-.79L18.47 8.559h77.992c-2.273 5.567-4.417 11.031-6.722 16.427C79.248 49.545 68.53 74.009 58.36 98.7c-1.834 4.45-3.962 5.89-8.338 5.346-2.126-.264-4.312-.046-7.333-.046l35.918-84.628h-38.88l8.041 14.374-14.63 13.94h23.256c-1.627 3.844-2.85 6.974-4.31 9.989-.317.653-1.487 1.262-2.267 1.266-14.078.076-28.157.055-43.388.055 4.184-3.938 7.518-7.076 11.1-10.463z"/><path fill="#2F446A" d="M310.98 48.023c1.705-6.652 2.871-13.075 5.178-19.059 4.01-10.4 10.511-18.304 22.826-19.155 4.53-.313 9.026-1.388 13.546-1.447 1.165-.015 3.508 2.648 3.356 3.83-.882 6.888-2.346 13.7-3.595 20.438-12.47 1.21-14.803 2.973-17.797 14.983-2.482 9.956-3.865 20.206-6.688 30.052-5.93 20.686-17.275 27.755-37.543 26.506-1.644-.1-3.287-.231-5.291-.374l4.495-23.891c12.592-.509 14.675-2.125 17.842-14.451 1.441-5.61 2.444-11.334 3.671-17.432z"/><path fill="#30456A" d="M260.059 49.186c2.325-12.503 4.815-24.545 6.741-36.677.596-3.749 1.997-4.598 5.438-4.453 5.962.25 11.943.069 18.44.069-2.024 11.432-3.913 22.372-5.906 33.293-3.547 19.439-7.249 38.85-10.653 58.314-.57 3.259-1.592 4.494-4.996 4.345-6.142-.27-12.305-.077-18.98-.077 3.325-18.334 6.594-36.36 9.916-54.814z"/><path fill="#0C2D5C" d="M378.468 64.006c1.423-.347 3.314-.958 5.207-.964 21.797-.07 43.593-.048 65.859-.046-1.164.347-2.795.983-4.428.987-22.057.065-44.113.042-66.638.023zM445.723 77.566c-7.913.328-15.962.245-24.33-.092 7.853-.276 16.023-.297 24.33.092z"/><path fill="#3A4E72" d="M199.108 12.63c-.255-.488-.45-1.35-.419-2.415.31.544.394 1.292.419 2.415zM176.558 8.729c.153.233.02.581-.342 1.1-.134-.214-.04-.6.342-1.1z"/><path fill="#FAFBFB" d="M380.01 46.955c.63-11.497 14.627-22.32 28.038-21.677 12.067.578 20.525 9.36 19.714 21.425-16.386.236-32.069.244-47.751.252z"/><path fill="#0C2D5C" d="M380.29 47.267c15.403-.32 31.086-.328 47.234-.292-.095.354-.657.935-1.217.932-15.246-.073-30.491-.205-46.017-.64z"/></svg>
